X: 38760
T: Strop The Razor
R: jig
M: 6/8
K: Eminor
BGG AGG|BGG AGF|DGG GFG|DGF G2A|BGG AGG|
BGG AGF|D2E F2G|ADE FGA:|:dBB cAA|dBB cAF|
DGG GFG|DGF G2B|dBB cAA|dBB cAF|D2E F2G|ADE FGA:|
|:BAB cBc|ded dBd|g3 gfd|gag gdc|
BAB cBc|ded d2e|=f3 fde|fag fdc:|

